X: 1
T: Bringebaersl\aaten
C:
R: shottish
Z: 2019 John Chambers <jc:trillian.mit.edu>
M: 2/4
L: 1/16
Z: 2019 John Chambers <jc:trillian.mit.edu>
K: D
|:\
"D"fedc d2F2 | "Em"BAGF G2E2 |\
[1,3 "A7"e2ed c2cB | A2AG "D"F3A :|\
[2,4 "A7"e2ed c2Bc | "D"d2d2 d3A :|
|:\
"D"A2f2 fedc | "G"B2g2 "Em"gfed :|\
[1,3 "A7"c2c2 B2B2 | ^GABA "(D)"F3A :|\
[2,4 "A7"c2c2 cABc | "D"d2d2 d4 :|
